dist/img/icons/visa.svg

<svg width="37" height="12" viewBox="0 0 37 12" fill="none" xmlns="http://www.w3.org/2000/svg">
<path d="M16.3505 11.8053H13.413L15.2489 0.522433H18.1867L16.3505 11.8053ZM10.9417 0.522433L8.14122 8.2829L7.80984 6.61177L7.81014 6.61237L6.82171 1.53833C6.82171 1.53833 6.70219 0.522433 5.42825 0.522433H0.798467L0.744141 0.713479C0.744141 0.713479 2.15994 1.00805 3.81688 2.00312L6.36899 11.8056H9.42965L14.1032 0.522433H10.9417V0.522433ZM34.0469 11.8053H36.7441L34.3924 0.522131H32.0311C30.9406 0.522131 30.675 1.36298 30.675 1.36298L26.2939 11.8053H29.3561L29.9685 10.1294H33.7028L34.0469 11.8053ZM30.8145 7.81418L32.3579 3.59185L33.2262 7.81418H30.8145ZM26.5236 3.23571L26.9428 0.812775C26.9428 0.812775 25.6493 0.320824 24.3008 0.320824C22.843 0.320824 19.3813 0.957946 19.3813 4.05604C19.3813 6.97093 23.4442 7.00714 23.4442 8.53823C23.4442 10.0693 19.7999 9.79497 18.5972 8.82948L18.1604 11.3629C18.1604 11.3629 19.4721 12 21.4761 12C23.4808 12 26.5049 10.9621 26.5049 8.13712C26.5049 5.20352 22.4054 4.93038 22.4054 3.65493C22.4057 2.37917 25.2666 2.54306 26.5236 3.23571V3.23571Z" fill="#0B002E"/>
<path d="M7.80917 6.60998L6.82073 1.53594C6.82073 1.53594 6.70122 0.520042 5.42727 0.520042H0.79749L0.743164 0.711089C0.743164 0.711089 2.96842 1.17226 5.10283 2.90012C7.14367 4.55163 7.80917 6.60998 7.80917 6.60998Z" fill="#0B002E"/>
</svg>

<svg width="37" height="12" viewBox="0 0 37 12" fill="none" xmlns="http://www.w3.org/2000/svg"><path d="M16.35 11.805h-2.937L15.249.522h2.938L16.35 11.805zM10.942.522l-2.8 7.76-.332-1.67-.988-5.074S6.702.522 5.428.522H.798L.744.713s1.416.295 3.073 1.29l2.552 9.803h3.06L14.104.522h-3.161zm23.105 11.283h2.697L34.392.522h-2.36c-1.091 0-1.357.841-1.357.841l-4.381 10.442h3.062l.612-1.676h3.735l.344 1.676zm-3.232-3.99l1.543-4.223.868 4.222h-2.412zm-4.291-4.58l.419-2.422S25.649.32 24.3.32c-1.458 0-4.92.637-4.92 3.735 0 2.915 4.063 2.951 4.063 4.482 0 1.531-3.644 1.257-4.847.291l-.437 2.534s1.312.637 3.316.637c2.005 0 5.029-1.038 5.029-3.863 0-2.933-4.1-3.207-4.1-4.482 0-1.276 2.862-1.112 4.119-.42z" fill="#0B002E"/><path d="M7.81 6.61l-.99-5.074S6.702.52 5.428.52H.797L.743.711s2.225.461 4.36 2.19C7.143 4.55 7.809 6.61 7.809 6.61z" fill="#0B002E"/></svg>
